X: 2044
T: Dogs Breakfast
C:Steve Ryan
B: steve tunes
B: steve originals
M:6/8
L:1/8
Q: 3/8=70
K:D
V:1 
|:"D" DFE DFE | "Bm"BFd "A"EcB| "G"DGd "A"cAE| "Em"GfF "A"EFG |
"D" DFE "Bm"BFE |"A" Adc "Bm"BAF| "Em"Bcd "Bm"BAF | "A"EFE "D"D3 :|
 |: "G"GDB "A"AcA  | "G"GAE  "D"FAc | "G"BGF GFD  |"A" cdB ABc |
 "G"GDB "A"ABc  | "A"efe "D"d_dA  | "G"Gfe "A"cAE  | "D"FD z z3 :|
% abcbook-tune_id 62a544e595164916cbf12358


% abcbook-boost 0
% abcbook-tablature 
% abcbook-transpose 
% abcbook-lastupdated 1667571185886
% abcbook-soundfonts 
% abcbook-repeats 3
%%scale 0.71
%%pagewidth 21.59cm
%%leftmargin 2.13cm
%%rightmargin 2.13cm
%%score ( 1 2 )

